X: 39842
T: Thirteen Hour Day
R: jig
M: 6/8
K: Eminor
|:EFG GAB|AFG EFD|EGB edc|BcA B3|
EFG GAB|AFG EFD|EGB cBA|1 GED E2D:|2 GED EGB||
|:e3 dBA|Bef gfe|~a3 gfe|dBA B2f|
g2b afg|efd eBd|ABG cBA|1 GED EGB:|2 GED E2D||

